icons/animal_pig_fill.svg

<svg width="48" height="48" viewBox="0 0 48 48" fill="none" xmlns="http://www.w3.org/2000/svg">
<path fill-rule="evenodd" clip-rule="evenodd" d="M20.2082 13C15.5623 13 13.0159 13.935 11.4008 15.2745C10.0489 14.8482 8.84977 14.9275 7 15.4487C8.25212 16.3561 8.93612 17.002 9.40231 17.7372C9.16925 18.1365 8.95407 18.5429 8.73935 18.9484C7.73793 20.8396 6.74675 22.7114 4 23.7622V27.0815C5.9798 29.0415 9.97194 30.3936 13.1076 29.9522C14.7356 33.776 20.0782 33.117 24.2069 32.6078C24.4687 32.5755 24.7265 32.5437 24.9773 32.5138C24.2881 31.5656 23.9372 30.3654 24.0093 28.9491C24.0374 28.3976 24.5073 27.9732 25.0589 28.0013C25.6105 28.0294 26.0348 28.4993 26.0068 29.0509C25.9355 30.4507 26.4316 31.3742 27.2334 31.9839C27.9931 32.5616 29.1132 32.9189 30.4991 32.9878C35.7901 32.7277 40 28.3555 40 23C40 17.8022 36.0344 13.5307 30.9636 13.0458L30.9635 13H20.2082ZM13 21C13.5523 21 14 20.5523 14 20C14 19.4477 13.5523 19 13 19C12.4477 19 12 19.4477 12 20C12 20.5523 12.4477 21 13 21Z" fill="black"/>
<path fill-rule="evenodd" clip-rule="evenodd" d="M41.1258 11.0463C41.6744 11.5451 42 12.266 42 13.1248C42 13.4283 41.956 13.7185 41.88 13.9938C42.2264 13.9816 42.5778 13.9702 42.8885 13.9702C43.4408 13.9702 43.8885 14.418 43.8885 14.9702C43.8885 15.5225 43.4408 15.9702 42.8885 15.9702C42.5676 15.9702 42.2462 15.9819 41.8981 15.9946C41.6639 16.0031 41.4177 16.0121 41.1514 16.0182C40.9862 16.022 40.8168 16.0245 40.6452 16.0243C40.314 16.3722 39.9554 16.6813 39.6118 16.9471C39.0655 17.3695 38.5248 17.7069 38.1238 17.9377C37.9221 18.0538 37.753 18.1444 37.6325 18.207C37.5721 18.2383 37.5238 18.2626 37.4895 18.2797L37.4486 18.2997L37.4365 18.3056L37.4326 18.3075L37.4312 18.3081C37.4312 18.3081 37.4301 18.3086 37 17.4059C36.5699 16.5031 36.5695 16.5033 36.5695 16.5033L36.5743 16.501L36.6004 16.4881C36.6246 16.4761 36.6622 16.4572 36.7113 16.4317C36.8095 16.3808 36.9529 16.304 37.1262 16.2042C37.3913 16.0517 37.72 15.8491 38.0617 15.6067C37.824 15.4989 37.5954 15.3612 37.3878 15.1846C36.8005 14.6848 36.5 13.9762 36.5 13.125C36.5 12.2639 36.824 11.5406 37.3749 11.0407C37.9089 10.5561 38.596 10.335 39.2525 10.3367C39.909 10.3384 40.5939 10.5627 41.1258 11.0463ZM39.7184 13.9811C39.9133 13.6613 40 13.3757 40 13.1248C40 12.796 39.8881 12.624 39.7804 12.5262C39.6561 12.4131 39.466 12.3372 39.2475 12.3367C39.029 12.3361 38.8411 12.4109 38.7189 12.5218C38.6135 12.6174 38.5 12.7894 38.5 13.125C38.5 13.4704 38.601 13.5908 38.684 13.6614C38.813 13.7712 39.0675 13.8869 39.5273 13.9563C39.5893 13.9657 39.6531 13.9739 39.7184 13.9811Z" fill="black"/>
<path d="M16 30H19V38H16V30Z" fill="black"/>
<path d="M15 37C15 36.4477 15.4477 36 16 36V38H15V37Z" fill="black"/>
<path d="M31 30H34V38H31V30Z" fill="black"/>
<path d="M30 37C30 36.4477 30.4477 36 31 36V38H30V37Z" fill="black"/>
</svg>

<svg
  xmlns="http://www.w3.org/2000/svg"
  width="24"
  height="24"
  viewBox="0 0 24 24"
  fill="none"
  stroke="currentColor"
  stroke-width="2"
  stroke-linecap="round"
  stroke-linejoin="round"
>
  <path
    fill-rule="evenodd"
    d="M20.208 13c-4.646 0-7.192.935-8.807 2.274-1.352-.426-2.551-.346-4.401.175 1.252.907 1.936 1.553 2.402 2.288-.233.4-.448.806-.663 1.211C7.738 20.84 6.747 22.711 4 23.762v3.32c1.98 1.96 5.972 3.312 9.108 2.87 1.628 3.824 6.97 3.165 11.099 2.656l.77-.094c-.689-.948-1.04-2.149-.968-3.565a1 1 0 0 1 1.998.102c-.072 1.4.425 2.323 1.226 2.933.76.578 1.88.935 3.266 1.004C35.79 32.728 40 28.356 40 23c0-5.198-3.966-9.47-9.036-9.954V13zM13 21a1 1 0 1 0 0-2 1 1 0 0 0 0 2"
    clip-rule="evenodd"
  />
  <path
    fill-rule="evenodd"
    d="M41.126 11.046c.548.5.874 1.22.874 2.079 0 .303-.044.594-.12.869.346-.012.698-.024 1.008-.024a1 1 0 0 1 0 2c-.32 0-.642.012-.99.025-.234.008-.48.017-.747.023q-.248.006-.506.006c-.331.348-.69.657-1.033.923a13.4 13.4 0 0 1-2.123 1.333l-.04.02-.012.006-.004.002h-.002L37 17.406l-.43-.903.004-.002.026-.013q.038-.018.111-.056a11.83 11.83 0 0 0 1.35-.825 2.9 2.9 0 0 1-.673-.422c-.587-.5-.888-1.209-.888-2.06 0-.861.324-1.584.875-2.084a2.78 2.78 0 0 1 1.877-.704 2.8 2.8 0 0 1 1.874.71m-1.408 2.935c.195-.32.282-.605.282-.856 0-.329-.112-.501-.22-.599a.8.8 0 0 0-.532-.19.79.79 0 0 0-.53.186c-.105.095-.218.267-.218.603 0 .345.101.466.184.536.129.11.384.226.843.295q.093.015.191.025"
    clip-rule="evenodd"
  />
  <path d="M16 30h3v8h-3z" />
  <path d="M15 37a1 1 0 0 1 1-1v2h-1z" />
  <path d="M31 30h3v8h-3z" />
  <path d="M30 37a1 1 0 0 1 1-1v2h-1z" />
</svg>
